X:1
T:Bergeret sans roch, Reprise II
T:(Basse dansse 2)
C:Tielman Susato
S:Tileman Susato: Danserye (1551)
R:Basse dance
M:3/2
L:1/2
K:C
"^segno"EEE|F/E/F/G/F|EDC|B,2z|CD/E/F/D/|E2z|CD/E/F/D/|E2z|
EEE|F/E/F/G/F|EDC|B,2z|E>D C/B,/|CD>C|C2B,|"^Fine"C2z|
EEE|D/C/D/E/F/D/|G2^F|G2z|F>E D/C/|DE>D|D2^C|D2z|
EEE|D/C/D/E/F/D/|G2^F|G2G|E>D C/B,/|CD>C|C2B,|"^D.S. al fine"C2z|]
